material/.icons/material/account-network.svg

<svg xmlns="http://www.w3.org/2000/svg" viewBox="0 0 24 24"><path d="M13 17v2h1a1 1 0 011 1h7v2h-7a1 1 0 01-1 1h-4a1 1 0 01-1-1H2v-2h7a1 1 0 011-1h1v-2H5v-1.5c0-1.93 3.13-3.5 7-3.5s7 1.57 7 3.5V17h-6M12 3a3.5 3.5 0 013.5 3.5A3.5 3.5 0 0112 10a3.5 3.5 0 01-3.5-3.5A3.5 3.5 0 0112 3z"/></svg>

<?xml version="1.0" encoding="UTF-8"?><!DOCTYPE svg PUBLIC "-//W3C//DTD SVG 1.1//EN" "http://www.w3.org/Graphics/SVG/1.1/DTD/svg11.dtd"><svg xmlns="http://www.w3.org/2000/svg" xmlns:xlink="http://www.w3.org/1999/xlink" version="1.1" id="mdi-account-network" width="24" height="24" viewBox="0 0 24 24"><path d="M13,17V19H14A1,1 0 0,1 15,20H22V22H15A1,1 0 0,1 14,23H10A1,1 0 0,1 9,22H2V20H9A1,1 0 0,1 10,19H11V17H5V15.5C5,13.57 8.13,12 12,12C15.87,12 19,13.57 19,15.5V17H13M12,3A3.5,3.5 0 0,1 15.5,6.5A3.5,3.5 0 0,1 12,10A3.5,3.5 0 0,1 8.5,6.5A3.5,3.5 0 0,1 12,3Z" /></svg>
